challenge-04/public/CardCategory/Plain.svg

<svg width="168" height="154" viewBox="0 0 168 154" fill="none" xmlns="http://www.w3.org/2000/svg">
<path d="M47.8052 72.9999C47.8052 82.9411 55.864 90.9999 65.8052 90.9999L92.8052 90.9999C95.5666 90.9999 97.8052 88.7614 97.8052 85.9999L97.8052 51.9999C97.8052 46.4771 93.328 41.9999 87.8052 41.9999L52.8052 41.9999C50.0437 41.9999 47.8052 44.2385 47.8052 46.9999L47.8052 72.9999Z" fill="#FFF1DA"/>
<path d="M96.3891 86.9413C95.0307 87.2456 93.7077 87.8091 92.5022 88.5965C89.3614 90.5978 87.5341 93.4546 88.421 94.9767C89.308 96.4988 92.5731 96.1095 95.7138 94.1082C96.9356 93.3486 98.021 92.3779 98.9032 91.2559C99.3125 90.7138 99.386 90.0383 99.0908 89.5334L97.9386 87.556C97.6454 87.0495 97.0374 86.8086 96.3891 86.9413Z" fill="#D5D6DB"/>
<path d="M88.5021 59.9482C87.5171 60.169 86.5577 60.5778 85.6834 61.1488C83.4066 62.5996 82.0808 64.671 82.7234 65.7738C83.366 66.8766 85.7345 66.5941 88.0111 65.1434C88.897 64.5923 89.6839 63.8881 90.3237 63.0744C90.6202 62.6815 90.6733 62.1922 90.4593 61.8261L89.6251 60.3943C89.4128 60.0271 88.9722 59.8521 88.5021 59.9482Z" fill="#D5D6DB"/>
<path d="M75.688 61.0787C75.4687 61.0542 75.2349 61.1126 75.0322 61.2421L69.684 64.6503C69.2366 64.9346 69.0576 65.4819 69.2845 65.8731C69.3364 65.9627 69.4075 66.0393 69.4937 66.0983L82.6753 75.1832L100.509 63.8185L75.688 61.0787Z" fill="#029BC5"/>
<path d="M132.065 59.794L83.5329 90.3461L54.8201 101.772L40.177 104.682L38.566 101.945L119.461 51.9985C121.872 50.5036 124.558 49.586 127.246 49.3389C128.424 49.237 129.587 49.2762 130.708 49.455C131.702 49.6057 132.645 49.8964 133.508 50.3185C134.472 50.7967 136.307 50.8519 136.901 51.8047C136.903 51.8032 138.305 56.1776 132.065 59.794Z" fill="#E1E6E9"/>
<path d="M84.1762 86.3036L63.1809 119.774C62.9187 120.244 63.0744 120.77 63.5283 120.949C63.8068 121.059 64.1477 121.016 64.4341 120.834L69.7781 117.444C70.806 116.791 71.7161 115.963 72.4523 115.009L113.169 67.1404L84.1762 86.3036Z" fill="#029BC5"/>
<path d="M31.1966 85.1861C30.8464 85.0664 30.4296 85.1285 30.0778 85.3525L25.6603 88.1659C25.0584 88.549 24.8185 89.2854 25.1244 89.8111C25.1827 89.911 25.2584 89.999 25.3491 90.0714L37.7259 99.9838L50.7389 91.8557L31.1966 85.1861Z" fill="#029BC5"/>
<path d="M41.8743 101.771L35.2128 111.1C35.1152 111.234 35.1381 111.403 35.2641 111.476C35.3549 111.529 35.4789 111.519 35.5797 111.452L39.708 108.836C39.74 108.815 39.7691 108.79 39.7931 108.761L49.5266 96.9261L41.8743 101.771Z" fill="#029BC5"/>
<path d="M129.911 49.8572C128.757 49.6718 127.559 49.6322 126.346 49.7388C125.165 51.3899 124.411 53.2446 124.157 55.118C124.139 55.4943 124.442 55.7652 124.835 55.723C124.957 55.7098 125.079 55.6669 125.188 55.5981L132.796 50.7538C131.906 50.3152 130.935 50.0134 129.911 49.8572Z" fill="#029BC5"/>
<path d="M113.332 58.7653L118.299 55.6284L122.926 63.4974L117.959 66.6343L113.332 58.7653Z" fill="#D5D6DB"/>
<path d="M110.207 61.8775C109.608 62.2567 109.369 62.9855 109.673 63.5052L110.165 64.3472C110.489 64.8536 111.228 64.9427 111.816 64.546C112.376 64.1682 112.602 63.4815 112.332 62.9745L111.84 62.1325C111.536 61.6132 110.805 61.499 110.207 61.8775Z" fill="#3A556A"/>
<path d="M105.742 64.65C105.144 65.0291 104.904 65.7579 105.208 66.2777L105.701 67.1196C106.025 67.6261 106.764 67.7152 107.352 67.3185C107.912 66.9407 108.137 66.254 107.868 65.747L107.375 64.905C107.071 64.3859 106.341 64.2716 105.742 64.65Z" fill="#3A556A"/>
<path d="M101.276 67.4233C100.679 67.803 100.44 68.5309 100.744 69.0501L101.236 69.8921C101.56 70.3986 102.299 70.4876 102.887 70.0909C103.447 69.7131 103.673 69.0265 103.403 68.5195L102.911 67.6775C102.607 67.1578 101.875 67.044 101.276 67.4233Z" fill="#3A556A"/>
<path d="M96.8121 70.1957C96.2142 70.5754 95.9758 71.3033 96.2794 71.8226L96.7717 72.6646C97.0956 73.171 97.8348 73.2601 98.4231 72.8634C98.9829 72.4856 99.2084 71.7989 98.9386 71.2919L98.4463 70.4499C98.1422 69.9304 97.4106 69.8166 96.8121 70.1957Z" fill="#3A556A"/>
<path d="M92.3481 72.9684C91.7499 73.3482 91.5113 74.0764 91.8151 74.5959L92.3077 75.4383C92.6114 75.9575 93.3427 76.0712 93.941 75.6923C94.5394 75.3133 94.7783 74.5851 94.4746 74.0658L93.982 73.2235C93.6791 72.7037 92.9481 72.5892 92.3494 72.9676C92.3489 72.9679 92.3486 72.9681 92.3481 72.9684Z" fill="#3A556A"/>
<path d="M87.8837 75.7408C87.2855 76.1207 87.047 76.8489 87.3508 77.3684L87.8434 78.2107C88.147 78.73 88.8783 78.8437 89.4767 78.4647C90.075 78.0857 90.3139 77.3575 90.0103 76.8383L89.5177 75.9959C89.2148 75.4762 88.4838 75.3617 87.885 75.74C87.8845 75.7404 87.884 75.7407 87.8837 75.7408Z" fill="#3A556A"/>
<path d="M83.4191 78.5134C82.8209 78.8932 82.5824 79.6214 82.8862 80.1409L83.3788 80.9832C83.6832 81.502 84.4148 81.6145 85.0125 81.2351C85.6092 80.8562 85.8476 80.1296 85.5454 79.6109L85.0528 78.7686C84.7492 78.249 84.018 78.1347 83.4191 78.5134Z" fill="#3A556A"/>
<path d="M78.9545 81.2859C78.3563 81.6657 78.1178 82.3939 78.4216 82.9134L78.9142 83.7558C79.2186 84.2746 79.9502 84.3871 80.5479 84.0076C81.1446 83.6288 81.383 82.9021 81.0808 82.3835L80.5882 81.5411C80.2846 81.0215 79.5534 80.9072 78.9545 81.2859Z" fill="#3A556A"/>
<path d="M74.4903 84.0583C73.8921 84.4381 73.6535 85.1663 73.9573 85.6858L74.4499 86.5281C74.7543 87.0469 75.486 87.1595 76.0837 86.78C76.6804 86.4011 76.9188 85.6745 76.6165 85.1559L76.1239 84.3136C75.8201 83.7941 75.0889 83.6798 74.4903 84.0583Z" fill="#3A556A"/>
<path d="M70.0245 86.8315C69.4261 87.2105 69.1872 87.9387 69.4909 88.458L69.4915 88.4591L69.9841 89.3014C70.2885 89.8202 71.0201 89.9328 71.6179 89.5533C72.2146 89.1744 72.453 88.4478 72.1507 87.9291L71.6581 87.0868C71.3546 86.5671 70.6233 86.4528 70.0245 86.8315Z" fill="#3A556A"/>
<path d="M65.5612 89.6032C64.9629 89.9822 64.724 90.7104 65.0276 91.2296L65.0283 91.2307L65.5209 92.073C65.8253 92.5918 66.5569 92.7044 67.1546 92.3249C67.7514 91.9461 67.9898 91.2194 67.6875 90.7008L67.1949 89.8585C66.8911 89.339 66.1599 89.2247 65.5612 89.6032Z" fill="#3A556A"/>
</svg>

<svg xmlns="http://www.w3.org/2000/svg" width="112.046" height="79.009" viewBox="0 0 112.046 79.009">
  <g id="Plain" transform="translate(-24.991 -42)">
    <path id="Path_1" data-name="Path 1" d="M47.805,73a18,18,0,0,0,18,18h27a5,5,0,0,0,5-5V52a10,10,0,0,0-10-10h-35a5,5,0,0,0-5,5Z" fill="#fff1da"/>
    <path id="Path_2" data-name="Path 2" d="M96.389,86.941A11.889,11.889,0,0,0,92.5,88.6c-3.141,2-4.968,4.858-4.081,6.38s4.152,1.133,7.293-.868A12.384,12.384,0,0,0,98.9,91.256a1.565,1.565,0,0,0,.188-1.722l-1.152-1.977A1.412,1.412,0,0,0,96.389,86.941Z" fill="#d5d6db"/>
    <path id="Path_3" data-name="Path 3" d="M88.5,59.948a8.627,8.627,0,0,0-2.819,1.2c-2.277,1.451-3.6,3.522-2.96,4.625s3.011.82,5.288-.63a8.988,8.988,0,0,0,2.313-2.069,1.134,1.134,0,0,0,.136-1.248l-.834-1.432A1.023,1.023,0,0,0,88.5,59.948Z" fill="#d5d6db"/>
    <path id="Path_4" data-name="Path 4" d="M75.688,61.079a1.02,1.02,0,0,0-.656.163L69.684,64.65a.942.942,0,0,0-.4,1.223.694.694,0,0,0,.209.225l13.182,9.085,17.834-11.365Z" fill="#029bc5"/>
    <path id="Path_5" data-name="Path 5" d="M132.065,59.794,83.533,90.346,54.82,101.772l-14.643,2.91-1.611-2.737L119.461,52a17.994,17.994,0,0,1,7.785-2.66,14.212,14.212,0,0,1,3.462.116,9.66,9.66,0,0,1,2.8.863c.964.478,2.8.533,3.393,1.486C136.9,51.8,138.3,56.178,132.065,59.794Z" fill="#e1e6e9"/>
    <path id="Path_6" data-name="Path 6" d="M84.176,86.3l-21,33.47a.794.794,0,0,0,.347,1.175,1.016,1.016,0,0,0,.906-.115l5.344-3.39a10.486,10.486,0,0,0,2.674-2.435L113.169,67.14Z" fill="#029bc5"/>
    <path id="Path_7" data-name="Path 7" d="M31.2,85.186a1.318,1.318,0,0,0-1.119.166L25.66,88.166a1.267,1.267,0,0,0-.536,1.645.935.935,0,0,0,.225.26l12.377,9.912,13.013-8.128Z" fill="#029bc5"/>
    <path id="Path_8" data-name="Path 8" d="M41.874,101.771,35.213,111.1a.251.251,0,0,0,.051.376.3.3,0,0,0,.316-.024l4.128-2.616a.382.382,0,0,0,.085-.075l9.734-11.835Z" fill="#029bc5"/>
    <path id="Path_9" data-name="Path 9" d="M129.911,49.857a14.489,14.489,0,0,0-3.565-.118,12.1,12.1,0,0,0-2.189,5.379.579.579,0,0,0,.678.6.834.834,0,0,0,.353-.125l7.608-4.844A9.889,9.889,0,0,0,129.911,49.857Z" fill="#029bc5"/>
    <path id="Path_10" data-name="Path 10" d="M113.332,58.765l4.967-3.137,4.627,7.869-4.967,3.137Z" fill="#d5d6db"/>
    <path id="Path_11" data-name="Path 11" d="M110.207,61.877a1.25,1.25,0,0,0-.534,1.628l.492.842a1.164,1.164,0,0,0,1.651.2,1.252,1.252,0,0,0,.516-1.571l-.492-.842A1.148,1.148,0,0,0,110.207,61.877Z" fill="#3a556a"/>
    <path id="Path_12" data-name="Path 12" d="M105.742,64.65a1.251,1.251,0,0,0-.534,1.628l.493.842a1.164,1.164,0,0,0,1.651.2,1.254,1.254,0,0,0,.516-1.571l-.493-.842A1.148,1.148,0,0,0,105.742,64.65Z" fill="#3a556a"/>
    <path id="Path_13" data-name="Path 13" d="M101.276,67.423a1.251,1.251,0,0,0-.532,1.627l.492.842a1.164,1.164,0,0,0,1.651.2,1.252,1.252,0,0,0,.516-1.571l-.492-.842A1.149,1.149,0,0,0,101.276,67.423Z" fill="#3a556a"/>
    <path id="Path_14" data-name="Path 14" d="M96.812,70.2a1.251,1.251,0,0,0-.533,1.627l.492.842a1.164,1.164,0,0,0,1.651.2,1.253,1.253,0,0,0,.515-1.572l-.492-.842A1.149,1.149,0,0,0,96.812,70.2Z" fill="#3a556a"/>
    <path id="Path_15" data-name="Path 15" d="M92.348,72.968a1.251,1.251,0,0,0-.533,1.628l.493.842a1.148,1.148,0,0,0,1.633.254,1.25,1.25,0,0,0,.534-1.626l-.493-.842a1.147,1.147,0,0,0-1.633-.256Z" fill="#3a556a"/>
    <path id="Path_16" data-name="Path 16" d="M87.884,75.741a1.251,1.251,0,0,0-.533,1.628l.493.842a1.148,1.148,0,0,0,1.633.254,1.25,1.25,0,0,0,.534-1.626L89.518,76a1.147,1.147,0,0,0-1.633-.256Z" fill="#3a556a"/>
    <path id="Path_17" data-name="Path 17" d="M83.419,78.513a1.251,1.251,0,0,0-.533,1.628l.493.842a1.148,1.148,0,0,0,1.634.252,1.25,1.25,0,0,0,.533-1.624l-.493-.842A1.148,1.148,0,0,0,83.419,78.513Z" fill="#3a556a"/>
    <path id="Path_18" data-name="Path 18" d="M78.954,81.286a1.251,1.251,0,0,0-.533,1.628l.493.842a1.148,1.148,0,0,0,1.634.252,1.25,1.25,0,0,0,.533-1.624l-.493-.842A1.148,1.148,0,0,0,78.954,81.286Z" fill="#3a556a"/>
    <path id="Path_19" data-name="Path 19" d="M74.49,84.058a1.251,1.251,0,0,0-.533,1.628l.493.842a1.148,1.148,0,0,0,1.634.252,1.25,1.25,0,0,0,.533-1.624l-.493-.842A1.149,1.149,0,0,0,74.49,84.058Z" fill="#3a556a"/>
    <path id="Path_20" data-name="Path 20" d="M70.024,86.831a1.25,1.25,0,0,0-.534,1.627h0l.493.842a1.148,1.148,0,0,0,1.634.252,1.25,1.25,0,0,0,.533-1.624l-.493-.842A1.148,1.148,0,0,0,70.024,86.831Z" fill="#3a556a"/>
    <path id="Path_21" data-name="Path 21" d="M65.561,89.6a1.25,1.25,0,0,0-.534,1.626h0l.493.842a1.148,1.148,0,0,0,1.634.252,1.25,1.25,0,0,0,.533-1.624l-.493-.842A1.149,1.149,0,0,0,65.561,89.6Z" fill="#3a556a"/>
  </g>
</svg>
